Newaita-dark/apps/64/com.github.alcinnz.odysseus.svg

<svg height="64" viewBox="0 0 64 64" width="64" xmlns="http://www.w3.org/2000/svg" xmlns:xlink="http://www.w3.org/1999/xlink"><linearGradient id="a"><stop offset="0" stop-opacity=".313726"/><stop offset=".222222" stop-opacity=".27451"/><stop offset="1" stop-opacity="0"/></linearGradient><radialGradient id="b" cx="450.908936" cy="189.579361" gradientTransform="matrix(.00000035 -.156265 -.281277 -.0000002 89.046304 127.190659)" gradientUnits="userSpaceOnUse" r="21.166656" xlink:href="#a"/><radialGradient id="c" cx="450.908936" cy="189.579361" gradientTransform="matrix(-.00000035 .156265 .281277 .0000002 -25.540237 -15.054964)" gradientUnits="userSpaceOnUse" r="21.166656" xlink:href="#a"/><radialGradient id="d" cx="450.908936" cy="189.579361" gradientTransform="matrix(-.00000035 -.156265 .281277 -.0000002 -25.540237 127.190659)" gradientUnits="userSpaceOnUse" r="21.166656" xlink:href="#a"/><radialGradient id="e" cx="450.908936" cy="189.579361" gradientTransform="matrix(.00000035 .156265 -.281277 .0000002 89.0463 -15.054965)" gradientUnits="userSpaceOnUse" r="21.166656" xlink:href="#a"/><linearGradient id="f" gradientTransform="matrix(.0267201 0 0 .125012 24.930772 26.877567)" gradientUnits="userSpaceOnUse" x1="255.323059" x2="255.323044" y1="233.5" y2="254.666656"><stop offset="0" stop-opacity=".27451"/><stop offset="1" stop-opacity="0"/></linearGradient><linearGradient id="g" gradientUnits="userSpaceOnUse" x1="31.753048" x2="31.753048" y1="5.79220799994" y2="56.067868"><stop offset="0" stop-color="#4db6ac"/><stop offset="1" stop-color="#26a69a"/></linearGradient><linearGradient id="h" gradientUnits="userSpaceOnUse" x1="31.753048" x2="31.753048" y1="56.067868" y2="5.79220799994"><stop offset="0" stop-color="#bdbdbd"/><stop offset="1" stop-color="#e0e0e0"/></linearGradient><linearGradient id="i" gradientUnits="userSpaceOnUse" x1="27.78395375" x2="27.78395375" y1="36.41122845234" y2="22.80276598809"><stop offset="0" stop-color="#8d6e63"/><stop offset="1" stop-color="#a1887f"/></linearGradient><linearGradient id="j" gradientUnits="userSpaceOnUse" x1="27.783908875" x2="27.783908875" y1="33.00911372617" y2="26.20488249404"><stop offset="0" stop-color="#424242"/><stop offset="1" stop-color="#616161"/></linearGradient><path d="m36.382812 56.066406h5.292969v-2.644531h-5.292969zm0 0" fill="url(#b)"/><path d="m27.121094 56.066406h-5.289063v2.648438h5.289063zm0 0" fill="url(#c)"/><path d="m27.121094 56.066406h-5.289063v-2.644531h5.289063zm0 0" fill="url(#d)"/><path d="m36.382812 56.066406h5.292969v2.648438h-5.292969zm0 0" fill="url(#e)"/><path d="m27.121094 55.40625h9.261718v3.308594h-9.261718zm0 0" fill="url(#f)"/><path d="m31.753906 5.792969c13.882813 0 25.136719 11.253906 25.136719 25.136719 0 13.882812-11.253906 25.136718-25.136719 25.136718-13.882812 0-25.140625-11.253906-25.140625-25.136718 0-13.882813 11.257813-25.136719 25.140625-25.136719zm0 0" fill="url(#g)"/><path d="m31.753906 56.066406c-13.925781 0-25.140625-11.210937-25.140625-25.136718 0-.082032.003907-.164063.003907-.246094.128906 13.8125 11.292968 24.890625 25.136718 24.890625s25.003906-11.078125 25.136719-24.890625v.246094c0 13.925781-11.210937 25.136718-25.136719 25.136718zm0 0" fill-opacity=".196078"/><path d="m31.753906 5.792969c-13.925781 0-25.140625 11.210937-25.140625 25.136719 0 .082031.003907.164062.003907.246093.128906-13.8125 11.292968-24.890625 25.136718-24.890625s25.003906 11.078125 25.136719 24.890625c0-.082031 0-.164062 0-.246093 0-13.925782-11.210937-25.136719-25.136719-25.136719zm0 0" fill="#fff" fill-opacity=".392157"/><path d="m327.906187 160.807862c4.624558-2.562255 6.624367-8.155471 4.718299-13.061253l-50.463931-129.73761c-2.343526-6.030674-9.499093-8.561683-15.123556-5.34324l-36.65275 21.185477c-5.624462 3.218443-6.999331 10.717726-2.968466 15.748496l87.116681 108.583381c3.218442 3.999618 8.874152 5.12451 13.373723 2.624749zm0 0" style="fill:#fff;fill-opacity:.392157;stroke-width:3;stroke-linecap:round;stroke-linejoin:round;stroke:#212121" transform="matrix(.125012 0 0 .125012 0 26.877566)"/><path d="m180.076554-95.980116c-4.593312 2.562255-6.624368 8.155471-4.7183 13.061253l50.463931 129.737611c2.343526 6.030674 9.53034 8.561682 15.123556 5.343239l36.683997-21.185477c5.593216-3.218442 6.999331-10.717726 2.937219-15.748496l-87.116681-108.58338c-3.218442-3.999619-8.874152-5.124511-13.373722-2.62475zm0 0" fill="none" stroke="#212121" stroke-linecap="round" stroke-linejoin="round" stroke-width="3" transform="matrix(.125012 0 0 .125012 0 26.877566)"/><path d="m22.511719 14.878906c-.574219.320313-.828125 1.019532-.589844 1.632813l6.308594 16.21875c.292969.753906 1.191406 1.070312 1.890625.667969l4.585937-2.648438c.699219-.402344.875-1.339844.367188-1.96875l-10.890625-13.574219c-.402344-.5-1.109375-.640625-1.671875-.328125zm0 0" fill-opacity=".235294"/><path d="m31.753906 5.605469c-14.027344 0-25.328125 11.296875-25.328125 25.324219 0 14.027343 11.300781 25.324218 25.328125 25.324218s25.324219-11.296875 25.324219-25.324218c0-14.027344-11.296875-25.324219-25.324219-25.324219zm0 .375c13.824219 0 24.949219 11.125 24.949219 24.949219 0 13.824218-11.125 24.949218-24.949219 24.949218-13.828125 0-24.953125-11.125-24.953125-24.949218 0-13.824219 11.125-24.949219 24.953125-24.949219zm0 0" fill="#212121"/><path d="m19.84375 41.515625s2.648438-3.226563 6.777344-3.960937c7.796875-1.390626 12.457031-4.246094 15.0625-6.996094 3.269531-3.445313 4.621094-7.566406 4.621094-7.566406s-18.519532-5.292969-25.238282 2.640624c-4.925781 5.816407-1.222656 15.882813-1.222656 15.882813zm0 0" fill="url(#h)"/><path d="m27.785156 24.316406c2.921875 0 5.289063 2.367188 5.289063 5.289063 0 2.925781-2.367188 5.292969-5.289063 5.292969-2.925781 0-5.292968-2.367188-5.292968-5.292969 0-2.921875 2.367187-5.289063 5.292968-5.289063zm0 0" fill="url(#i)"/><path d="m27.785156 26.960938c1.460938 0 2.644532 1.183593 2.644532 2.644531 0 1.464843-1.183594 2.648437-2.644532 2.648437-1.460937 0-2.648437-1.183594-2.648437-2.648437 0-1.460938 1.1875-2.644531 2.648437-2.644531zm0 0" fill="url(#j)"/><path d="m33.859375 21.261719c-4.839844-.003907-9.90625.960937-12.792969 4.371093-2.054687 2.425782-2.605468 5.589844-2.554687 8.453126.050781-2.660157.675781-5.496094 2.554687-7.71875 2.886719-3.40625 7.953125-4.375 12.792969-4.367188 5.660156.007812 11.003906 1.34375 12.195313 1.660156.171874-.421875.25-.667968.25-.667968s-6.023438-1.722657-12.445313-1.730469zm0 0" fill="#fff"/><path d="m45.832031 24.1875c-.640625 1.476562-1.96875 4.074219-4.148437 6.371094-2.605469 2.75-7.265625 5.605468-15.0625 6.996094-4.128906.734374-6.777344 3.960937-6.777344 3.960937s-1.195312-3.25-1.324219-7.125c-.152343 4.429687 1.324219 8.445313 1.324219 8.445313s2.648438-3.222657 6.777344-3.957032c7.796875-1.390625 12.457031-4.246094 15.0625-6.996094 3.269531-3.445312 4.621094-7.566406 4.621094-7.566406s-.164063-.050781-.472657-.128906zm0 0" fill-opacity=".235294"/><g fill="none" stroke="#212121" stroke-width="3" transform="matrix(.125012 0 0 .125012 0 26.877566)"><path d="m158.734842 117.093287s21.185476-25.810036 54.213572-31.684475c62.369044-11.123937 99.646735-33.965506 120.488494-55.963405 26.153753-27.559869 36.96522-60.52547 36.96522-60.52547s-148.142103-42.339707-201.88697 21.122982c-39.402488 46.526807-9.780316 127.050368-9.780316 127.050368zm0 0"/><path d="m222.260025-20.487325c23.372768 0 42.30846 18.935692 42.30846 42.30846 0 23.404015-18.935692 42.339706-42.30846 42.339706-23.404015 0-42.339707-18.935691-42.339707-42.339706 0-23.372768 18.935692-42.30846 42.339707-42.30846zm0 0" stroke-linecap="round" stroke-linejoin="round"/><path d="m222.260025.666905c11.686384 0 21.15423 9.467846 21.15423 21.15423 0 11.717631-9.467846 21.185477-21.15423 21.185477s-21.185477-9.467846-21.185477-21.185477c0-11.686384 9.499093-21.15423 21.185477-21.15423zm0 0" stroke-linecap="round" stroke-linejoin="round"/></g><path d="m27.121094 27.621094c.730468 0 1.324218.59375 1.324218 1.324218 0 .730469-.59375 1.324219-1.324218 1.324219-.730469 0-1.320313-.59375-1.320313-1.324219 0-.730468.589844-1.324218 1.320313-1.324218zm0 0" fill="#fff" fill-opacity=".156863"/></svg>

<?xml version="1.0" encoding="UTF-8"?>
<svg xmlns="http://www.w3.org/2000/svg" xmlns:xlink="http://www.w3.org/1999/xlink" width="64px" height="64px" viewBox="0 0 64 64" version="1.1">
<defs>
<radialGradient id="radial0" gradientUnits="userSpaceOnUse" cx="450.908936" cy="189.579361" fx="450.908936" fy="189.579361" r="21.166656" gradientTransform="matrix(0.000000348341,-0.156265,-0.281277,-0.000000203077,89.046304,127.190659)">
<stop offset="0" style="stop-color:rgb(0%,0%,0%);stop-opacity:0.313726;"/>
<stop offset="0.222222" style="stop-color:rgb(0%,0%,0%);stop-opacity:0.27451;"/>
<stop offset="1" style="stop-color:rgb(0%,0%,0%);stop-opacity:0;"/>
</radialGradient>
<radialGradient id="radial1" gradientUnits="userSpaceOnUse" cx="450.908936" cy="189.579361" fx="450.908936" fy="189.579361" r="21.166656" gradientTransform="matrix(-0.000000348341,0.156265,0.281277,0.000000203077,-25.540237,-15.054964)">
<stop offset="0" style="stop-color:rgb(0%,0%,0%);stop-opacity:0.313726;"/>
<stop offset="0.222222" style="stop-color:rgb(0%,0%,0%);stop-opacity:0.27451;"/>
<stop offset="1" style="stop-color:rgb(0%,0%,0%);stop-opacity:0;"/>
</radialGradient>
<radialGradient id="radial2" gradientUnits="userSpaceOnUse" cx="450.908936" cy="189.579361" fx="450.908936" fy="189.579361" r="21.166656" gradientTransform="matrix(-0.000000348341,-0.156265,0.281277,-0.000000203077,-25.540237,127.190659)">
<stop offset="0" style="stop-color:rgb(0%,0%,0%);stop-opacity:0.313726;"/>
<stop offset="0.222222" style="stop-color:rgb(0%,0%,0%);stop-opacity:0.27451;"/>
<stop offset="1" style="stop-color:rgb(0%,0%,0%);stop-opacity:0;"/>
</radialGradient>
<radialGradient id="radial3" gradientUnits="userSpaceOnUse" cx="450.908936" cy="189.579361" fx="450.908936" fy="189.579361" r="21.166656" gradientTransform="matrix(0.000000348341,0.156265,-0.281277,0.000000203077,89.0463,-15.054965)">
<stop offset="0" style="stop-color:rgb(0%,0%,0%);stop-opacity:0.313726;"/>
<stop offset="0.222222" style="stop-color:rgb(0%,0%,0%);stop-opacity:0.27451;"/>
<stop offset="1" style="stop-color:rgb(0%,0%,0%);stop-opacity:0;"/>
</radialGradient>
<linearGradient id="linear0" gradientUnits="userSpaceOnUse" x1="255.323059" y1="233.5" x2="255.323044" y2="254.666656" gradientTransform="matrix(0.0267201,0,0,0.125012,24.930772,26.877567)">
<stop offset="0" style="stop-color:rgb(0%,0%,0%);stop-opacity:0.27451;"/>
<stop offset="1" style="stop-color:rgb(0%,0%,0%);stop-opacity:0;"/>
</linearGradient>
<linearGradient id="linear1" gradientUnits="userSpaceOnUse" x1="254" y1="-168.666672" x2="254" y2="233.5" gradientTransform="matrix(0.125012,0,0,0.125012,0,26.877566)">
<stop offset="0" style="stop-color:rgb(30.19608%,71.372551%,67.450982%);stop-opacity:1;"/>
<stop offset="1" style="stop-color:rgb(14.901961%,65.098041%,60.392159%);stop-opacity:1;"/>
</linearGradient>
<linearGradient id="linear2" gradientUnits="userSpaceOnUse" x1="254" y1="233.5" x2="254" y2="-168.666672" gradientTransform="matrix(0.125012,0,0,0.125012,0,26.877566)">
<stop offset="0" style="stop-color:rgb(74.117649%,74.117649%,74.117649%);stop-opacity:1;"/>
<stop offset="1" style="stop-color:rgb(87.843138%,87.843138%,87.843138%);stop-opacity:1;"/>
</linearGradient>
<linearGradient id="linear3" gradientUnits="userSpaceOnUse" x1="222.25" y1="64.166664" x2="222.25" y2="-31.083334" gradientTransform="matrix(0.142871,0,0,0.142871,-3.969126,27.243673)">
<stop offset="0" style="stop-color:rgb(55.29412%,43.137255%,38.82353%);stop-opacity:1;"/>
<stop offset="1" style="stop-color:rgb(63.137257%,53.333336%,49.803922%);stop-opacity:1;"/>
</linearGradient>
<linearGradient id="linear4" gradientUnits="userSpaceOnUse" x1="222.25" y1="64.166664" x2="222.25" y2="-31.083334" gradientTransform="matrix(0.0714355,0,0,0.0714355,11.907369,28.425336)">
<stop offset="0" style="stop-color:rgb(25.882354%,25.882354%,25.882354%);stop-opacity:1;"/>
<stop offset="1" style="stop-color:rgb(38.039216%,38.039216%,38.039216%);stop-opacity:1;"/>
</linearGradient>
</defs>
<g id="surface1">
<path style=" stroke:none;fill-rule:nonzero;fill:url(#radial0);" d="M 36.382812 56.066406 L 41.675781 56.066406 L 41.675781 53.421875 L 36.382812 53.421875 Z M 36.382812 56.066406 "/>
<path style=" stroke:none;fill-rule:nonzero;fill:url(#radial1);" d="M 27.121094 56.066406 L 21.832031 56.066406 L 21.832031 58.714844 L 27.121094 58.714844 Z M 27.121094 56.066406 "/>
<path style=" stroke:none;fill-rule:nonzero;fill:url(#radial2);" d="M 27.121094 56.066406 L 21.832031 56.066406 L 21.832031 53.421875 L 27.121094 53.421875 Z M 27.121094 56.066406 "/>
<path style=" stroke:none;fill-rule:nonzero;fill:url(#radial3);" d="M 36.382812 56.066406 L 41.675781 56.066406 L 41.675781 58.714844 L 36.382812 58.714844 Z M 36.382812 56.066406 "/>
<path style=" stroke:none;fill-rule:nonzero;fill:url(#linear0);" d="M 27.121094 55.40625 L 36.382812 55.40625 L 36.382812 58.714844 L 27.121094 58.714844 Z M 27.121094 55.40625 "/>
<path style=" stroke:none;fill-rule:nonzero;fill:url(#linear1);" d="M 31.753906 5.792969 C 45.636719 5.792969 56.890625 17.046875 56.890625 30.929688 C 56.890625 44.8125 45.636719 56.066406 31.753906 56.066406 C 17.871094 56.066406 6.613281 44.8125 6.613281 30.929688 C 6.613281 17.046875 17.871094 5.792969 31.753906 5.792969 Z M 31.753906 5.792969 "/>
<path style=" stroke:none;fill-rule:nonzero;fill:rgb(0%,0%,0%);fill-opacity:0.196078;" d="M 31.753906 56.066406 C 17.828125 56.066406 6.613281 44.855469 6.613281 30.929688 C 6.613281 30.847656 6.617188 30.765625 6.617188 30.683594 C 6.746094 44.496094 17.910156 55.574219 31.753906 55.574219 C 45.597656 55.574219 56.757812 44.496094 56.890625 30.683594 C 56.890625 30.765625 56.890625 30.847656 56.890625 30.929688 C 56.890625 44.855469 45.679688 56.066406 31.753906 56.066406 Z M 31.753906 56.066406 "/>
<path style=" stroke:none;fill-rule:nonzero;fill:rgb(100%,100%,100%);fill-opacity:0.392157;" d="M 31.753906 5.792969 C 17.828125 5.792969 6.613281 17.003906 6.613281 30.929688 C 6.613281 31.011719 6.617188 31.09375 6.617188 31.175781 C 6.746094 17.363281 17.910156 6.285156 31.753906 6.285156 C 45.597656 6.285156 56.757812 17.363281 56.890625 31.175781 C 56.890625 31.09375 56.890625 31.011719 56.890625 30.929688 C 56.890625 17.003906 45.679688 5.792969 31.753906 5.792969 Z M 31.753906 5.792969 "/>
<path style="fill-rule:nonzero;fill:rgb(100%,100%,100%);fill-opacity:0.392157;stroke-width:3;stroke-linecap:round;stroke-linejoin:round;stroke:rgb(12.941177%,12.941177%,12.941177%);stroke-opacity:1;stroke-miterlimit:4;" d="M 327.906187 160.807862 C 332.530745 158.245607 334.530554 152.652391 332.624486 147.746609 L 282.160555 18.008999 C 279.817029 11.978325 272.661462 9.447316 267.036999 12.665759 L 230.384249 33.851236 C 224.759787 37.069679 223.384918 44.568962 227.415783 49.599732 L 314.532464 158.183113 C 317.750906 162.182731 323.406616 163.307623 327.906187 160.807862 Z M 327.906187 160.807862 " transform="matrix(0.125012,0,0,0.125012,0,26.877566)"/>
<path style="fill:none;stroke-width:3;stroke-linecap:round;stroke-linejoin:round;stroke:rgb(12.941177%,12.941177%,12.941177%);stroke-opacity:1;stroke-miterlimit:4;" d="M 180.076554 -95.980116 C 175.483242 -93.417861 173.452186 -87.824645 175.358254 -82.918863 L 225.822185 46.818748 C 228.165711 52.849422 235.352525 55.38043 240.945741 52.161987 L 277.629738 30.97651 C 283.222954 27.758068 284.629069 20.258784 280.566957 15.228014 L 193.450276 -93.355366 C 190.231834 -97.354985 184.576124 -98.479877 180.076554 -95.980116 Z M 180.076554 -95.980116 " transform="matrix(0.125012,0,0,0.125012,0,26.877566)"/>
<path style=" stroke:none;fill-rule:nonzero;fill:rgb(0%,0%,0%);fill-opacity:0.235294;" d="M 22.511719 14.878906 C 21.9375 15.199219 21.683594 15.898438 21.921875 16.511719 L 28.230469 32.730469 C 28.523438 33.484375 29.421875 33.800781 30.121094 33.398438 L 34.707031 30.75 C 35.40625 30.347656 35.582031 29.410156 35.074219 28.78125 L 24.183594 15.207031 C 23.78125 14.707031 23.074219 14.566406 22.511719 14.878906 Z M 22.511719 14.878906 "/>
<path style=" stroke:none;fill-rule:nonzero;fill:rgb(12.941177%,12.941177%,12.941177%);fill-opacity:1;" d="M 31.753906 5.605469 C 17.726562 5.605469 6.425781 16.902344 6.425781 30.929688 C 6.425781 44.957031 17.726562 56.253906 31.753906 56.253906 C 45.78125 56.253906 57.078125 44.957031 57.078125 30.929688 C 57.078125 16.902344 45.78125 5.605469 31.753906 5.605469 Z M 31.753906 5.980469 C 45.578125 5.980469 56.703125 17.105469 56.703125 30.929688 C 56.703125 44.753906 45.578125 55.878906 31.753906 55.878906 C 17.925781 55.878906 6.800781 44.753906 6.800781 30.929688 C 6.800781 17.105469 17.925781 5.980469 31.753906 5.980469 Z M 31.753906 5.980469 "/>
<path style=" stroke:none;fill-rule:nonzero;fill:url(#linear2);" d="M 19.84375 41.515625 C 19.84375 41.515625 22.492188 38.289062 26.621094 37.554688 C 34.417969 36.164062 39.078125 33.308594 41.683594 30.558594 C 44.953125 27.113281 46.304688 22.992188 46.304688 22.992188 C 46.304688 22.992188 27.785156 17.699219 21.066406 25.632812 C 16.140625 31.449219 19.84375 41.515625 19.84375 41.515625 Z M 19.84375 41.515625 "/>
<path style=" stroke:none;fill-rule:nonzero;fill:url(#linear3);" d="M 27.785156 24.316406 C 30.707031 24.316406 33.074219 26.683594 33.074219 29.605469 C 33.074219 32.53125 30.707031 34.898438 27.785156 34.898438 C 24.859375 34.898438 22.492188 32.53125 22.492188 29.605469 C 22.492188 26.683594 24.859375 24.316406 27.785156 24.316406 Z M 27.785156 24.316406 "/>
<path style=" stroke:none;fill-rule:nonzero;fill:url(#linear4);" d="M 27.785156 26.960938 C 29.246094 26.960938 30.429688 28.144531 30.429688 29.605469 C 30.429688 31.070312 29.246094 32.253906 27.785156 32.253906 C 26.324219 32.253906 25.136719 31.070312 25.136719 29.605469 C 25.136719 28.144531 26.324219 26.960938 27.785156 26.960938 Z M 27.785156 26.960938 "/>
<path style=" stroke:none;fill-rule:nonzero;fill:rgb(100%,100%,100%);fill-opacity:1;" d="M 33.859375 21.261719 C 29.019531 21.257812 23.953125 22.222656 21.066406 25.632812 C 19.011719 28.058594 18.460938 31.222656 18.511719 34.085938 C 18.5625 31.425781 19.1875 28.589844 21.066406 26.367188 C 23.953125 22.960938 29.019531 21.992188 33.859375 22 C 39.519531 22.007812 44.863281 23.34375 46.054688 23.660156 C 46.226562 23.238281 46.304688 22.992188 46.304688 22.992188 C 46.304688 22.992188 40.28125 21.269531 33.859375 21.261719 Z M 33.859375 21.261719 "/>
<path style=" stroke:none;fill-rule:nonzero;fill:rgb(0%,0%,0%);fill-opacity:0.235294;" d="M 45.832031 24.1875 C 45.191406 25.664062 43.863281 28.261719 41.683594 30.558594 C 39.078125 33.308594 34.417969 36.164062 26.621094 37.554688 C 22.492188 38.289062 19.84375 41.515625 19.84375 41.515625 C 19.84375 41.515625 18.648438 38.265625 18.519531 34.390625 C 18.367188 38.820312 19.84375 42.835938 19.84375 42.835938 C 19.84375 42.835938 22.492188 39.613281 26.621094 38.878906 C 34.417969 37.488281 39.078125 34.632812 41.683594 31.882812 C 44.953125 28.4375 46.304688 24.316406 46.304688 24.316406 C 46.304688 24.316406 46.140625 24.265625 45.832031 24.1875 Z M 45.832031 24.1875 "/>
<path style="fill:none;stroke-width:3;stroke-linecap:butt;stroke-linejoin:miter;stroke:rgb(12.941177%,12.941177%,12.941177%);stroke-opacity:1;stroke-miterlimit:4;" d="M 158.734842 117.093287 C 158.734842 117.093287 179.920318 91.283251 212.948414 85.408812 C 275.317458 74.284875 312.595149 51.443306 333.436908 29.445407 C 359.590661 1.885538 370.402128 -31.080063 370.402128 -31.080063 C 370.402128 -31.080063 222.260025 -73.41977 168.515158 -9.957081 C 129.11267 36.569726 158.734842 117.093287 158.734842 117.093287 Z M 158.734842 117.093287 " transform="matrix(0.125012,0,0,0.125012,0,26.877566)"/>
<path style="fill:none;stroke-width:3;stroke-linecap:round;stroke-linejoin:round;stroke:rgb(12.941177%,12.941177%,12.941177%);stroke-opacity:1;stroke-miterlimit:4;" d="M 222.260025 -20.487325 C 245.632793 -20.487325 264.568485 -1.551633 264.568485 21.821135 C 264.568485 45.22515 245.632793 64.160841 222.260025 64.160841 C 198.85601 64.160841 179.920318 45.22515 179.920318 21.821135 C 179.920318 -1.551633 198.85601 -20.487325 222.260025 -20.487325 Z M 222.260025 -20.487325 " transform="matrix(0.125012,0,0,0.125012,0,26.877566)"/>
<path style="fill:none;stroke-width:3;stroke-linecap:round;stroke-linejoin:round;stroke:rgb(12.941177%,12.941177%,12.941177%);stroke-opacity:1;stroke-miterlimit:4;" d="M 222.260025 0.666905 C 233.946409 0.666905 243.414255 10.134751 243.414255 21.821135 C 243.414255 33.538766 233.946409 43.006612 222.260025 43.006612 C 210.573641 43.006612 201.074548 33.538766 201.074548 21.821135 C 201.074548 10.134751 210.573641 0.666905 222.260025 0.666905 Z M 222.260025 0.666905 " transform="matrix(0.125012,0,0,0.125012,0,26.877566)"/>
<path style=" stroke:none;fill-rule:nonzero;fill:rgb(100%,100%,100%);fill-opacity:0.156863;" d="M 27.121094 27.621094 C 27.851562 27.621094 28.445312 28.214844 28.445312 28.945312 C 28.445312 29.675781 27.851562 30.269531 27.121094 30.269531 C 26.390625 30.269531 25.800781 29.675781 25.800781 28.945312 C 25.800781 28.214844 26.390625 27.621094 27.121094 27.621094 Z M 27.121094 27.621094 "/>
</g>
</svg>
